X:128
T:Oranges and Lemons. (p)1657.PLFD1.128
M:C
L:1/8
Q:1/2=80
S:Playford, Dancing Master,3rd Ed.,1657
O:England;London
H:1657.
Z:Chris Partington.
K:D
d2 e2 afed|e3 d B3 A|d3 f afed|1e3 f d4:|2e3 f d2|
|:ga|b6 fg|a6 fe|d3 f afed|e3 d B3 A|d3 f afed|1e3 f d2 :|2e3 f d4|]
